img/step__01.svg

<svg width="61" height="68" viewBox="0 0 61 68" fill="none" xmlns="http://www.w3.org/2000/svg">
<rect x="12.698" y="24.0603" width="19.8472" height="4.79084" fill="#FF2B00"/>
<path d="M60.2348 51.4052L53.209 44.3905C53.0873 44.2605 52.9158 44.1913 52.7388 44.1913C52.7388 44.1913 52.7388 44.1913 52.7332 44.1913C52.5534 44.1913 52.3792 44.2605 52.2575 44.3905L51.104 45.5412L49.0267 43.4694C51.5576 40.8057 53.1122 37.2181 53.1122 33.2626C53.1122 25.0889 46.4653 18.442 38.2888 18.442C30.1179 18.442 23.471 25.0889 23.471 33.2626C23.471 41.4418 30.1206 48.0915 38.2888 48.0915C42.0313 48.0915 45.4446 46.6918 48.0613 44.3988L50.1497 46.4954L49.1871 47.458C48.9216 47.7208 48.9216 48.1551 49.1871 48.4179L56.2102 55.4326C56.3291 55.5571 56.4978 55.629 56.6804 55.629C56.8574 55.629 57.0317 55.5571 57.1562 55.4326L60.2265 52.365C60.3565 52.2323 60.4284 52.0691 60.4284 51.8837C60.4284 51.6984 60.3648 51.5325 60.2348 51.4052ZM24.8236 33.2626C24.8236 25.8302 30.8675 19.7863 38.2971 19.7863C45.7296 19.7863 51.7762 25.8329 51.7762 33.2626C51.7762 40.6978 45.724 46.7389 38.2971 46.7389C30.8702 46.7389 24.8236 40.6978 24.8236 33.2626ZM56.6942 53.9998L50.6227 47.931L52.7415 45.8095L58.8158 51.8782L56.6942 53.9998Z" fill="#010101" stroke="black" stroke-width="0.5"/>
<path d="M34.4799 31.5888C33.3984 29.3898 32.7594 27.0331 32.5824 24.5852V24.5658C32.5547 24.2394 32.5381 23.6364 32.5381 23.5921C32.5879 18.58 35.4784 3.35838 35.5061 3.20348C35.5642 2.89645 35.4121 2.58388 35.1299 2.44558L32.0513 0.907645C31.8411 0.802535 31.5949 0.808067 31.393 0.924242C31.1883 1.04042 31.0555 1.24787 31.0389 1.48022C30.9338 2.82176 30.6102 4.35693 30.2506 5.74273C27.6726 5.95572 25.0642 6.06359 22.4862 6.06359C19.9055 6.06359 17.2971 5.95295 14.7191 5.74273C14.2904 4.09415 14.0193 2.6392 13.9308 1.48022C13.9142 1.24787 13.7814 1.03765 13.5795 0.924242C13.3748 0.808067 13.1286 0.799769 12.9184 0.907645L9.83427 2.44834C9.5549 2.58665 9.4 2.89921 9.45808 3.20625C9.49128 3.38327 12.7995 20.8095 12.3929 24.4469C12.3929 24.4552 12.3929 24.4662 12.3901 24.4773C12.3071 25.7082 12.1052 26.9363 11.7871 28.1257C11.4662 29.3207 11.0292 30.488 10.4871 31.5861C8.31293 36.0035 4.16384 45.657 0.769877 60.6796C0.703492 60.97 0.830731 61.2743 1.08797 61.4292L7.95611 65.6363C8.14144 65.7498 8.36825 65.7719 8.57294 65.6944C8.77487 65.617 8.92977 65.4482 8.99339 65.2408L9.45532 63.7222C11.8701 64.2091 14.3347 64.5659 16.7992 64.7789L16.7079 65.5727C16.6664 65.9074 16.8739 66.2227 17.1948 66.3223C18.9236 66.8645 20.7049 67.1356 22.4862 67.1356C24.2676 67.1356 26.0462 66.8645 27.7777 66.3223C28.1014 66.2227 28.3033 65.9074 28.2646 65.5727L28.1705 64.7816C30.6351 64.5686 33.0996 64.2118 35.5144 63.725L35.9736 65.2436C36.0372 65.451 36.1949 65.6198 36.394 65.6972C36.4742 65.7276 36.5627 65.7442 36.643 65.7442C36.773 65.7442 36.9002 65.7083 37.0108 65.6391L43.879 61.4319C44.1362 61.2743 44.2635 60.9728 44.1971 60.6823C40.8031 45.6598 36.654 36.0035 34.4799 31.5888ZM23.1861 7.46045C25.4017 7.44386 27.6339 7.34981 29.8467 7.18108C29.5535 8.1741 29.2769 8.99009 29.1193 9.44649C27.1554 9.6982 25.1666 9.83927 23.1861 9.86693V7.46045ZM21.7837 7.46045V9.86693C19.8059 9.83927 17.8116 9.6982 15.8505 9.44649C15.69 8.99009 15.4134 8.17133 15.1202 7.18108C17.3331 7.35258 19.568 7.44386 21.7837 7.46045ZM10.9352 3.46626L12.6446 2.61154C12.8299 3.97245 13.1895 5.56847 13.7151 7.37194C14.2074 9.05924 14.6583 10.2763 14.6776 10.3289C14.7662 10.5723 14.9819 10.7438 15.2392 10.7797C17.6318 11.1061 20.0687 11.2749 22.4835 11.2749C24.8983 11.2749 27.3352 11.1089 29.7278 10.7797C29.9823 10.7438 30.198 10.5723 30.2921 10.3289C30.3585 10.1435 31.8438 6.12168 32.3251 2.61154L34.0318 3.46626C33.5118 6.24062 31.1855 18.9175 31.1413 23.5783C31.1413 23.5866 31.1413 23.5977 31.1413 23.6115C25.3934 24.4192 19.5763 24.4192 13.8285 23.6115C13.7814 18.9203 11.4552 6.24892 10.9352 3.46626ZM25.3685 29.0745C23.1335 28.986 15.3692 28.7868 13.148 28.4743C13.4495 27.3457 13.6542 26.184 13.7565 25.0194C15.7979 25.3016 23.3797 25.4869 25.4321 25.5699L25.3685 29.0745ZM25.067 25.5699C27.1194 25.4869 29.1718 25.3016 31.2132 25.0194C31.3183 26.1923 31.5174 27.3457 31.8189 28.4743C29.5978 28.7868 27.3628 28.9887 25.1306 29.0745L25.067 25.5699ZM22.4503 25.6224C22.4613 25.6224 22.4724 25.6224 22.4862 25.6224C22.4973 25.6224 22.5084 25.6224 22.5194 25.6224H22.4503ZM37.0523 63.9712L30.7236 43.1067C30.6102 42.7361 30.2202 42.5259 29.8495 42.6393C29.4789 42.7527 29.2714 43.1455 29.382 43.5134L35.1023 62.3752C32.7677 62.8426 30.3861 63.1828 28.0045 63.3875L26.107 47.4301C26.06 47.0429 25.7142 46.7718 25.3298 46.816C24.9425 46.8603 24.6714 47.2116 24.7157 47.5933L26.8013 65.1468C23.9661 65.924 21.0036 65.924 18.1684 65.1468L20.1738 48.3042C20.2181 47.9169 19.9442 47.5712 19.5597 47.5269C19.1753 47.4799 18.8267 47.7565 18.7825 48.141L16.9679 63.3875C14.5836 63.1828 12.202 62.8426 9.86746 62.3752L15.5849 43.5134C15.6983 43.1427 15.4881 42.7527 15.1174 42.6393C14.7468 42.5259 14.3568 42.7361 14.2434 43.1067L7.91739 63.9712L2.24972 60.4998C5.59113 45.8977 9.62405 36.5207 11.7456 32.2084C12.1246 31.4395 12.4537 30.6429 12.7331 29.8296C15.9722 30.2916 19.2278 30.5267 22.4862 30.5267C25.7419 30.5267 28.9976 30.2916 32.2339 29.8296C32.516 30.6373 32.8424 31.4312 33.2213 32.2084C35.3457 36.5207 39.3786 45.8977 42.72 60.4998L37.0523 63.9712Z" fill="black" stroke="black" stroke-width="0.25"/>
</svg>

<svg width="61" height="68" fill="none" xmlns="http://www.w3.org/2000/svg"><path fill="#FF2B00" d="M12.698 24.06h19.847v4.791H12.698z"/><path d="M60.235 51.405l-7.026-7.014a.642.642 0 00-.47-.2h-.006a.65.65 0 00-.475.2l-1.154 1.15-2.077-2.072a14.765 14.765 0 004.085-10.206c0-8.174-6.647-14.821-14.823-14.821-8.171 0-14.818 6.647-14.818 14.82 0 8.18 6.65 14.83 14.818 14.83 3.742 0 7.156-1.4 9.772-3.693l2.089 2.096-.963.963a.678.678 0 000 .96l7.023 7.015a.647.647 0 00.47.196.679.679 0 00.476-.196l3.07-3.068a.674.674 0 00.202-.481.65.65 0 00-.193-.479zM24.824 33.263c0-7.433 6.043-13.477 13.473-13.477 7.433 0 13.48 6.047 13.48 13.477 0 7.435-6.053 13.476-13.48 13.476-7.427 0-13.473-6.041-13.473-13.476zM56.694 54l-6.071-6.069 2.119-2.121 6.074 6.068L56.694 54z" fill="#010101" stroke="#000" stroke-width=".5"/><path d="M34.48 31.589a18.884 18.884 0 01-1.898-7.004v-.02a21.166 21.166 0 01-.044-.973c.05-5.012 2.94-20.234 2.968-20.389a.7.7 0 00-.376-.757L32.05.908a.694.694 0 00-.658.016.697.697 0 00-.354.556c-.105 1.342-.429 2.877-.788 4.263a94.63 94.63 0 01-7.765.32c-2.58 0-5.189-.11-7.767-.32-.429-1.649-.7-3.104-.788-4.263a.696.696 0 00-.351-.556.692.692 0 00-.662-.016l-3.084 1.54a.703.703 0 00-.376.758c.033.177 3.341 17.604 2.935 21.24 0 .01 0 .02-.003.031a18.933 18.933 0 01-1.903 7.109C8.313 36.004 4.164 45.657.77 60.68c-.067.29.06.594.318.75l6.868 4.206a.702.702 0 00.617.058.707.707 0 00.42-.453l.462-1.519c2.415.487 4.88.844 7.344 1.057l-.091.794a.698.698 0 00.487.75c1.729.542 3.51.813 5.291.813 1.782 0 3.56-.271 5.292-.814a.698.698 0 00.487-.75l-.095-.79a65.95 65.95 0 007.344-1.057l.46 1.519a.714.714 0 00.42.453.692.692 0 00.617-.058l6.868-4.207a.697.697 0 00.318-.75C40.803 45.66 36.654 36.004 34.48 31.59zM23.186 7.46a97.409 97.409 0 006.66-.279 52.37 52.37 0 01-.727 2.265 52.535 52.535 0 01-5.933.42V7.46zm-1.402 0v2.407a52.533 52.533 0 01-5.933-.42 48.865 48.865 0 01-.73-2.266c2.212.172 4.447.263 6.663.28zM10.935 3.466l1.71-.854c.185 1.36.545 2.956 1.07 4.76.492 1.687.943 2.904.963 2.957a.697.697 0 00.561.45c2.393.327 4.83.496 7.244.496 2.415 0 4.852-.166 7.245-.495a.712.712 0 00.564-.451c.066-.186 1.552-4.207 2.033-7.717l1.707.854c-.52 2.775-2.846 15.451-2.89 20.112v.034a62.152 62.152 0 01-17.314 0c-.047-4.692-2.373-17.363-2.893-20.146zM25.37 29.075c-2.235-.089-10-.288-12.221-.6.302-1.13.506-2.291.609-3.456 2.04.283 9.623.468 11.675.55l-.063 3.506zm-.302-3.505a63.697 63.697 0 006.146-.55 20.43 20.43 0 00.606 3.454 66.322 66.322 0 01-6.688.6l-.064-3.504zm-2.617.052h.069-.069zm14.602 38.35l-6.328-20.865a.7.7 0 10-1.342.406l5.72 18.862a64.295 64.295 0 01-7.097 1.013L26.107 47.43a.7.7 0 10-1.391.163L26.8 65.147a16.273 16.273 0 01-8.633 0l2.006-16.843a.699.699 0 00-.614-.777.698.698 0 00-.777.614l-1.815 15.247a64.248 64.248 0 01-7.1-1.013l5.717-18.862a.7.7 0 10-1.342-.406L7.917 63.97 2.25 60.5c3.341-14.602 7.374-23.98 9.496-28.292a20.18 20.18 0 00.987-2.378 69.05 69.05 0 009.753.697 68.96 68.96 0 009.748-.697c.282.807.608 1.601.987 2.378 2.125 4.313 6.158 13.69 9.499 28.292l-5.668 3.471z" fill="#000" stroke="#000" stroke-width=".25"/></svg>
